X:355
T: Pigeon's Flight [The]
S: "First Collection of Traditional Irish Music" (M.Mulvihill)
C: F.McCollum
Z: B.Black
L: 1/8
M: 6/8
R: jig
K: D
A|dcd GED|FD=C EFG|dcd efg|fec ecA|
dcd GED|FD=C EFG|dcd AGF|GFE D2 :|
A|dcd fga|aba a2 f|dcd fdf|gfg ecA|
dcd fga|aba a2 f|dcd AGF|GFE D2 :|
